src/assets/Checked.svg

<svg height="19" viewBox="0 0 19 19" width="19" xmlns="http://www.w3.org/2000/svg" xmlns:xlink="http://www.w3.org/1999/xlink"><defs><path id="a" d="m0 0h19v19h-19z"/><filter id="b" height="142.1%" width="142.1%" x="-21.1%" y="-21.1%"><feGaussianBlur in="SourceAlpha" result="shadowBlurInner1" stdDeviation="3"/><feOffset dx="2" dy="2" in="shadowBlurInner1" result="shadowOffsetInner1"/><feComposite in="shadowOffsetInner1" in2="SourceAlpha" k2="-1" k3="1" operator="arithmetic" result="shadowInnerInner1"/><feColorMatrix in="shadowInnerInner1" type="matrix" values="0 0 0 0 0   0 0 0 0 0   0 0 0 0 0  0 0 0 0.147220335 0"/></filter></defs><g fill="none" fill-rule="evenodd"><use fill="#6461ff" fill-rule="evenodd" xlink:href="#a"/><use fill="#000" filter="url(#b)" xlink:href="#a"/><path d="m17.1889529 3.73694892.132834.13656298c.3775655.38816474.3775655 1.00633977 0 1.39450451l-9.72010962 9.99297709c-.38508179.3958919-1.01818612.4046553-1.4140781.0195735-.0072805-.0070816-.01445268-.0142738-.02151406-.0215741l-3.49170081-3.6097959c-.37573004-.3884379-.37487069-1.0051148.00194047-1.392504l.13181137-.1355116c.38508178-.39589202 1.01818611-.40465541 1.4140781-.0195736.00758251.0073754.01504753.0148708.02239223.0224831l2.63824351 2.7343808 8.87245121-9.12152278c.3850818-.39589199 1.0181861-.40465538 1.4140781-.01957359.0066145.00643391.0131396.01295906.0195736.01957359z" fill="#f2f2f2" fill-rule="nonzero"/></g></svg>

<svg width="19px" height="19px" viewBox="0 0 19 19" version="1.1" xmlns="http://www.w3.org/2000/svg" xmlns:xlink="http://www.w3.org/1999/xlink">
    <defs>
        <rect id="path-1" x="0" y="0" width="19" height="19"></rect>
        <filter x="-21.1%" y="-21.1%" width="142.1%" height="142.1%" filterUnits="objectBoundingBox" id="filter-2">
            <feGaussianBlur stdDeviation="3" in="SourceAlpha" result="shadowBlurInner1"></feGaussianBlur>
            <feOffset dx="2" dy="2" in="shadowBlurInner1" result="shadowOffsetInner1"></feOffset>
            <feComposite in="shadowOffsetInner1" in2="SourceAlpha" operator="arithmetic" k2="-1" k3="1" result="shadowInnerInner1"></feComposite>
            <feColorMatrix values="0 0 0 0 0   0 0 0 0 0   0 0 0 0 0  0 0 0 0.147220335 0" type="matrix" in="shadowInnerInner1"></feColorMatrix>
        </filter>
    </defs>
    <g id="🧩-Symbols" stroke="none" stroke-width="1" fill="none" fill-rule="evenodd">
        <g id="ui/inputs/checkbox--checked">
            <g id="Group-2">
                <g id="Rectangle-Copy-3">
                    <use fill="#6461FF" fill-rule="evenodd" xlink:href="#path-1"></use>
                    <use fill="black" fill-opacity="1" filter="url(#filter-2)" xlink:href="#path-1"></use>
                </g>
                <path d="M17.1889529,3.73694892 L17.3217869,3.8735119 C17.6993524,4.26167664 17.6993524,4.87985167 17.3217869,5.26801641 L7.60167728,15.2609935 C7.21659549,15.6568854 6.58349116,15.6656488 6.18759918,15.280567 C6.18031868,15.2734854 6.1731465,15.2662932 6.16608512,15.2589929 L2.67438431,11.649197 C2.29865427,11.2607591 2.29951362,10.6440822 2.67632478,10.256693 L2.80813615,10.1211814 C3.19321793,9.72528938 3.82632226,9.71652599 4.22221425,10.1016078 C4.22979676,10.1089832 4.23726178,10.1164786 4.24460648,10.1240909 L6.88284999,12.8584717 L15.7553012,3.73694892 C16.140383,3.34105693 16.7734873,3.33229354 17.1693793,3.71737533 C17.1759938,3.72380924 17.1825189,3.73033439 17.1889529,3.73694892 Z" id="Path-Copy-2" fill="#F2F2F2" fill-rule="nonzero"></path>
            </g>
        </g>
    </g>
</svg>
